icon-themes/sifr_svg/cmd/lc_framedialog.svg

<svg viewBox="0 0 24 24" xmlns="http://www.w3.org/2000/svg"><path d="m3 3c-.554 0-1 .446-1 1v16c0 .554.446 1 1 1h14.871094l-.427735-.427734h-2.328125c-1.35622 0-2.902005-.408487-4.326172-1.572266h-6.789062v-14h16v7.359375c.40316.896472.572266 1.817709.572266 2.755859v2.328125l1.427734 1.427735v-14.871094c0-.554-.446-1-1-1zm13 8v1.503906c.628416.471311.998772 1.210576 1 1.996094 0 1.380712-1.119288 2.5-2.5 2.5-.786206-.000614-1.526324-.371035-1.998047-1h-1.501953v1.857422c1.371429 1.321851 2.804414 1.714844 4.115234 1.714844h2.742188l3.427734 3.427734h1.714844v-1.714844l-3.427734-3.427734v-2.742188c0-1.511964-.368607-2.743805-1.714844-4.115234z" fill="#555753"/></svg>

<svg xmlns="http://www.w3.org/2000/svg" viewBox="0 0 24 24">
  <path
     style="fill:#555753"
     d="M 3 3 C 2.446 3 2 3.446 2 4 L 2 20 C 2 20.554 2.446 21 3 21 L 17.871094 21 L 17.443359 20.572266 L 15.115234 20.572266 C 13.759014 20.572266 12.213229 20.163779 10.789062 19 L 4 19 L 4 5 L 20 5 L 20 12.359375 C 20.40316 13.255847 20.572266 14.177084 20.572266 15.115234 L 20.572266 17.443359 L 22 18.871094 L 22 4 C 22 3.446 21.554 3 21 3 L 3 3 z M 16 11 L 16 12.503906 C 16.628416 12.975217 16.998772 13.714482 17 14.5 C 17 15.880712 15.880712 17 14.5 17 C 13.713794 16.999386 12.973676 16.628965 12.501953 16 L 11 16 L 11 17.857422 C 12.371429 19.179273 13.804414 19.572266 15.115234 19.572266 L 17.857422 19.572266 L 21.285156 23 L 23 23 L 23 21.285156 L 19.572266 17.857422 L 19.572266 15.115234 C 19.572266 13.60327 19.203659 12.371429 17.857422 11 L 16 11 z "
     />
</svg>
